!!!!SEGMENT: pl-wn--mus-iii-118-771--003_badarzewska-tekla--mazurka-brillante.krn
!!!cenid: 18xx:3542
!!!COM: Bądarzewska, Tekla
!!!COM-rismID: pe30005936
!!!CDT: ~1830-1861/09/29
!!!CNT: Polish
!!!OTL: Mazurka Brillante
!!!PDT:
!!!AGN:
!!!SMS-siglum: PL-Wn
!!!SMS-shelfmark: Mus.III.118.771
!!!SMS-shelfwork: 003 W
!!!SMS-variant:
!!!SMS-altvar:
!!!NIFC-rismSourceID:
!!!NIFC-rismChildID:
!!!NIFC-islandoraID: none
!!!URL-pdf-islandora:
!!!URL-scan: https://polona2.pl/item/pieces-favorites,MTk4NjI5Mw/4 @EN{Scan on Polona} @PL{Skany w portalu Polona}
!!!IIIF: https://polona2.pl/iiif/item/MTk4NjI5Mw/manifest.json
!!!ONB-nifc:
!!!OMD: Moderato.
!!!AIN: 1 piano
!!!key: E-
**kern	**kern	**fing
*part1	*part1	*part1
*staff2	*staff1	*staff1
*>[A,A,B,B,C,C,D,D,E,E,F,F]	*>[A,A,B,B,C,C,D,D,E,E,F,F]	*>[A,A,B,B,C,C,D,D,E,E,F,F]
*>A	*>A	*>A
*I"PIANO.	*I"PIANO.	*
*mI"Pianoforte	*mI"Pianoforte	*
*Ipiano	*Ipiano	*
*ICklav	*ICklav	*
*clefF4	*clefG2	*
*k[b-e-a-]	*k[b-e-a-]	*
*E-:	*E-:	*
*M3/4	*M3/4	*
=1	=1	=1
*xywh-9:74,94,2722,1432	*xywh-9:74,94,2722,1432	*
!LO:MO:null:mod=*ped	!LO:MO:mod=*null:null	!
*	*ped	*
4E- 4EE-/	8.gggL 8.gg\	.
.	16gggK 16gg\	.
4g 4e- 4B-\	8.fff 8.ff\	.
.	16eee-K 16ee-\	.
4g 4e- 4B-\	8.ddd 8.dd\	.
.	16cccJk 16cc\	.
!LO:MO:null:mod=*Xped	!LO:MO:mod=*null:null	!
*	*Xped	*
=2	=2	=2
!LO:MO:null:mod=*ped	!LO:MO:mod=*null:null	!
*	*ped	*
4AA- 4AAA-/	8dddL 8dd\	.
.	8cccJ 8cc\	.
4f 4c 4A-\	4.aa- 4.a-\	.
4f 4c 4A-\	.	.
.	8ff 8f\	.
!LO:MO:null:mod=*Xped	!LO:MO:mod=*null:null	!
*	*Xped	*
=3	=3	=3
!LO:MO:null:mod=*ped	!LO:MO:mod=*null:null	!
*	*ped	*
4BB- 4BBB-/	(32d\LLL	.
.	32f\	.
.	32a-\	.
.	32b-\	.
.	32dd\	.
.	32ff\	.
.	32aa-\	.
.	32bb-\JJJ	.
4d 4B- 4A- 4F\	8.ddd\L)	.
.	16ccc\Jk	.
4d 4B- 4A- 4F\	8.bb-\L	.
.	16aan\Jk	.
!LO:MO:null:mod=*Xped	!LO:MO:mod=*null:null	!
*	*Xped	*
!!LO:LB:g=original
=4	=4	=4
*xywh-9:61,1432,2606,699	*xywh-9:61,1432,2606,699	*
!LO:MO:null:mod=*ped	!LO:MO:mod=*null:null	!
*	*ped	*
4E- 4EE-/	8.ccc\L	.
.	16bb-\Jk	.
4e- 4B- 4G\	4.gg\	.
4e- 4B- 4G\	.	.
.	8bb-\	.
!LO:MO:null:mod=*Xped	!LO:MO:mod=*null:null	!
*	*Xped	*
=5	=5	=5
!LO:MO:null:mod=*ped	!LO:MO:mod=*null:null	!
*	*ped	*
4E- 4EE-/	8.ggg\L	.
.	16eee-\K	.
4g 4e- 4B-\	8.bb-\	.
.	16gg\K	.
4g 4e- 4B-\	8.ee-\	.
.	16b-\Jk	.
!LO:MO:null:mod=*Xped	!LO:MO:mod=*null:null	!
*	*Xped	*
=6	=6	=6
!LO:MO:null:mod=*ped	!LO:MO:mod=*null:null	!
*	*ped	*
4AA- 4AAA-/	8dd\L	.
.	8cc\J	.
4f 4c 4A-\	4.a-/	.
4f 4c 4A-\	.	.
.	8f/	.
!LO:MO:null:mod=*Xped	!LO:MO:mod=*null:null	!
*	*Xped	*
=7	=7	=7
!LO:MO:null:mod=*ped	!LO:MO:mod=*null:null	!
*	*ped	*
4BB- 4BBB-/	(32d\LLL	.
.	32f\	.
.	32a-\	.
.	32b-\	.
.	32dd\	.
.	32ff\	.
.	32aa-\	.
.	32bb-\JJJ	.
4d 4B- 4A- 4F\	8.ddd\L)	.
.	16ccc\Jk	.
4d 4B- 4A- 4F\	8.bb-\L	.
.	16dd\Jk	.
!LO:MO:null:mod=*Xped	!LO:MO:mod=*null:null	!
*	*Xped	*
!!LO:LB:g=original
=8	=8	=8
*xywh-9:87,2118,2640,629	*xywh-9:87,2118,2640,629	*
!LO:MO:null:mod=*ped	!LO:MO:mod=*null:null	!
*	*ped	*
4e- 4B- 4G\	4ee-\	.
4E- 4BB- 4GG 4EE-/	4eee- 4bb- 4gg 4ee-\	.
!LO:MO:null:mod=*Xped	!LO:MO:mod=*null:null	!
*	*Xped	*
4r	4r	.
=9:|!|:	=9:|!|:	=9:|!|:
*>B	*>B	*>B
!LO:MO:null:mod=*ped	!LO:MO:mod=*null:null	!
*	*ped	*
4BB- 4BBB-/	8.ffL 8.b- 8.f\	.
.	16ffJk 16b- 16f\	.
4d 4B- 4A- 4F\	4.bb- 4.dd 4.b-^\	.
4d 4B- 4A- 4F\	.	.
.	8ff 8b- 8f\	.
!LO:MO:null:mod=*Xped	!LO:MO:mod=*null:null	!
*	*Xped	*
=10	=10	=10
!LO:MO:null:mod=*ped	!LO:MO:mod=*null:null	!
*	*ped	*
4E- 4EE-/	8.ggL 8.b- 8.g\	.
.	16ggJk 16b- 16g\	.
4e- 4B- 4G\	4.bb- 4.ee- 4.b-^\	.
4e- 4B- 4G\	.	.
.	8gg 8b- 8g\	.
!LO:MO:null:mod=*Xped	!LO:MO:mod=*null:null	!
*	*Xped	*
=11	=11	=11
!LO:MO:null:mod=*ped	!LO:MO:mod=*null:null	!
*	*ped	*
4BB- 4BBB-/	8.aa-L 8.cc 8.a-\	.
.	16aa-Jk 16cc 16a-\	.
4d 4B- 4A- 4F\	4.ddd 4.ff 4.dd^\	.
4d 4B- 4A- 4F\	.	.
.	8ccc 8ee- 8cc\	.
!LO:MO:null:mod=*Xped	!LO:MO:mod=*null:null	!
*	*Xped	*
!!LO:LB:g=original
=12	=12	=12
*xywh-9:69,2731,2649,862	*xywh-9:69,2731,2649,862	*
!LO:MO:null:mod=*ped	!LO:MO:mod=*null:null	!
*	*ped	*
4E- 4EE-/	4ccc 4ee- 4cc\	.
4e- 4B- 4G\	4bb- 4ee- 4b-^\	.
!LO:MO:null:mod=*Xped	!LO:MO:mod=*null:null	!
*	*Xped	*
4r	4r	.
=13	=13	=13
!LO:MO:null:mod=*ped	!LO:MO:mod=*null:null	!
*	*ped	*
4E- 4EE-/	8.gggL 8.bb- 8.gg^\	.
.	16gggJk 16bb- 16gg\	.
4e- 4B- 4G\	4.fff 4.aa- 4.ff\	.
4e- 4B- 4G\	.	.
.	8eee- 8gg 8ee-\	.
!LO:MO:null:mod=*Xped	!LO:MO:mod=*null:null	!
*	*Xped	*
=14	=14	=14
!LO:MO:null:mod=*ped	!LO:MO:mod=*null:null	!
*	*ped	*
4AA- 4AAA-/	8.dddL 8.ff 8.dd^\	.
.	16dddJk 16ff 16dd\	.
4f 4c 4A-\	4.ccc 4.ee- 4.cc\	.
4f 4c 4A-\	.	.
.	8ff 8a- 8f\	.
!LO:MO:null:mod=*Xped	!LO:MO:mod=*null:null	!
*	*Xped	*
=15	=15	=15
!LO:MO:null:mod=*ped	!LO:MO:mod=*null:null	!
*	*ped	*
4BB- 4BBB-/	8.bb-L 8.dd 8.b-^\	.
.	16bb-Jk 16dd 16b-\	.
4d 4B- 4A- 4F\	4..aa- 4..cc 4..a-\	.
4d 4B- 4A- 4F\	.	.
.	16dd 16f 16d/	.
!LO:MO:null:mod=*Xped	!LO:MO:mod=*null:null	!
*	*Xped	*
=16	=16	=16
!LO:MO:null:mod=*ped	!LO:MO:mod=*null:null	!
*	*ped	*
4B- 4G 4E-\	4ee- 4g 4e-\	.
4E- 4EE-/	4eee- 4bb- 4gg 4ee-\	.
!LO:MO:null:mod=*Xped	!LO:MO:mod=*null:null	!
*	*Xped	*
4r	4r	.
!!LO:PB:g=original
=17:|!|:	=17:|!|:	=17:|!|:
*>C	*>C	*>C
*xywh-10:151,146,2666,835	*xywh-10:151,146,2666,835	*
!LO:MO:null:mod=*ped	!LO:MO:mod=*null:null	!
*	*ped	*
4E- 4EE-/	8.gggL 8.gg\	.
.	16gggK 16gg\	.
4g 4e- 4B-\	8.fff 8.ff\	.
.	16eee-K 16ee-\	.
4g 4e- 4B-\	8.ddd 8.dd\	.
.	16cccJk 16cc\	.
!LO:MO:null:mod=*Xped	!LO:MO:mod=*null:null	!
*	*Xped	*
=18	=18	=18
!LO:MO:null:mod=*ped	!LO:MO:mod=*null:null	!
*	*ped	*
4AA- 4AAA-/	8dddL 8dd\	.
.	8cccJ 8cc\	.
4f 4c 4A-\	4.aa- 4.a-\	.
4f 4c 4A-\	.	.
.	8ff 8f\	.
!LO:MO:null:mod=*Xped	!LO:MO:mod=*null:null	!
*	*Xped	*
=19	=19	=19
!LO:MO:null:mod=*ped	!LO:MO:mod=*null:null	!
*	*ped	*
4BB- 4BBB-/	(32d\LLL	.
.	32f\	.
.	32a-\	.
.	32b-\	.
.	32dd\	.
.	32ff\	.
.	32aa-\	.
.	32bb-\JJJ	.
4d 4B- 4A- 4F\	8.ddd\L)	.
.	16ccc\Jk	.
4d 4B- 4A- 4F\	8.bb-\L	.
!LO:MO:null:mod=*Xped	!LO:MO:mod=*null:null	!
*	*Xped	*
.	16aan\Jk	.
=20	=20	=20
!LO:MO:null:mod=*ped	!LO:MO:mod=*null:null	!
*	*ped	*
4E- 4EE-/	8.ccc\L	.
.	16bb-\Jk	.
4e- 4B- 4G\	4.gg\	.
4e- 4B- 4G\	.	.
.	8bb-\	.
!LO:MO:null:mod=*Xped	!LO:MO:mod=*null:null	!
*	*Xped	*
=21	=21	=21
!LO:MO:null:mod=*ped	!LO:MO:mod=*null:null	!
*	*ped	*
!	!LO:N:vis=8	!
4E- 4EE-/	(8.ggg\L	.
.	16eee-\K	.
4g 4e- 4B-\	8.bb-\	.
.	16gg\K	.
4g 4e- 4B-\	8.ee-\	.
.	16b-\Jk)	.
!LO:MO:null:mod=*Xped	!LO:MO:mod=*null:null	!
*	*Xped	*
!!LO:LB:g=original
=22	=22	=22
*xywh-10:147,977,2623,637	*xywh-10:147,977,2623,637	*
!LO:MO:null:mod=*ped	!LO:MO:mod=*null:null	!
*	*ped	*
4AA- 4AAA-/	(8dd\L	.
.	8cc\J	.
4f 4c 4A-\	4.a-/	.
4f 4c 4A-\	.	.
.	8f/)	.
!LO:MO:null:mod=*Xped	!LO:MO:mod=*null:null	!
*	*Xped	*
=23	=23	=23
!LO:MO:null:mod=*ped	!LO:MO:mod=*null:null	!
*	*ped	*
4BB- 4BBB-/	(32d\LLL	.
.	32f\	.
.	32a-\	.
.	32b-\	.
.	32dd\	.
.	32ff\	.
.	32aa-\	.
.	32bb-\JJJ	.
4d 4B- 4A- 4F\	8.ddd\L)	.
.	16ccc\Jk	.
4d 4B- 4A- 4F\	8.bb-\L	.
.	16dd\Jk	.
!LO:MO:null:mod=*Xped	!LO:MO:mod=*null:null	!
*	*Xped	*
=24	=24	=24
!LO:MO:null:mod=*ped	!LO:MO:mod=*null:null	!
*	*ped	*
4e- 4B- 4G\	4ee-\	.
4E- 4BB- 4GG 4EE-/	4eee- 4bb- 4gg 4ee-\	.
4r	4r	.
!LO:MO:null:mod=*Xped	!LO:MO:mod=*null:null	!
*	*Xped	*
.	.	.
=25:|!|:	=25:|!|:	=25:|!|:
*>D	*>D	*>D
*	*clefF4	*
!LO:MO:null:mod=*ped	!LO:MO:mod=*null:null	!
*	*ped	*
4BB- 4BBB-/	4F\	.
4d 4A-\	4.B-^\	.
4r	.	.
.	8F\	.
=26	=26	=26
!LO:MO:null:mod=*ped	!LO:MO:mod=*null:null	!
*	*ped	*
4E- 4EE-/	8.G\L	.
.	16G\Jk	.
4e- 4G\	4.B-^\	.
4r	.	.
.	8G\	.
!!LO:LB:g=original
=27	=27	=27
*xywh-10:168,1581,2589,551	*xywh-10:168,1581,2589,551	*
!LO:MO:null:mod=*ped	!LO:MO:mod=*null:null	!
*	*ped	*
4BB- 4BBB-/	8.A-\L	.
.	16A-\Jk	.
4f 4A-\	4.d^\	.
4r	.	.
.	8c\	.
!LO:MO:null:mod=*Xped	!LO:MO:mod=*null:null	!
*	*Xped	*
=28	=28	=28
!LO:MO:null:mod=*ped	!LO:MO:mod=*null:null	!
*	*ped	*
4E- 4EE-/	4c\	.
4e- 4G\	4B-^\	.
!LO:MO:null:mod=*Xped	!LO:MO:mod=*null:null	!
*	*Xped	*
4r	4r	.
=29	=29	=29
!LO:MO:null:mod=*ped	!LO:MO:mod=*null:null	!
*	*ped	*
4E- 4EE-/	8.g^\L	.
.	16g\Jk	.
4e- 4B- 4G\	4.f\	.
4e- 4B- 4G\	.	.
.	8e-\	.
!LO:MO:null:mod=*Xped	!LO:MO:mod=*null:null	!
*	*Xped	*
=30	=30	=30
!LO:MO:null:mod=*ped	!LO:MO:mod=*null:null	!
*	*ped	*
4AA- 4AAA-/	8.f^\L	.
.	16f\Jk	.
4f 4c 4A-\	4.e-\	.
4f 4c 4A-\	.	.
.	8F\	.
!LO:MO:null:mod=*Xped	!LO:MO:mod=*null:null	!
*	*Xped	*
=31	=31	=31
!LO:MO:null:mod=*ped	!LO:MO:mod=*null:null	!
*	*ped	*
4BB- 4BBB-/	8.c^\L	.
.	16c\Jk	.
4d 4A-\	4.B-\	.
4d 4A-\	.	.
.	8D\	.
!LO:MO:null:mod=*Xped	!LO:MO:mod=*null:null	!
*	*Xped	*
=32	=32	=32
!LO:MO:null:mod=*ped	!LO:MO:mod=*null:null	!
*	*ped	*
4B- 4G\	4E-\	.
4E- 4EE-/	4e- 4B- 4G\	.
!LO:MO:null:mod=*Xped	!LO:MO:mod=*null:null	!
*	*Xped	*
4r	4r	.
!!LO:LB:g=original
=33:|!|:	=33:|!|:	=33:|!|:
*>E	*>E	*>E
*	*clefG2	*
*xywh-10:143,2067,2632,732	*xywh-10:143,2067,2632,732	*
*	*8va	*
!LO:MO:null:mod=*ped	!LO:MO:mod=*null:null	!
*	*ped	*
!	!LO:TX:a:i:t=Brillante.	!
4E- 4EE-/	[4gggg: 4ggg:\	.
4g 4e- 4B-\	(16gggg\LL]	.
.	16ffff#X\	.
.	16ffffn\	.
.	16eeeen\JJ	.
4g 4e- 4B-\	16eeee-X\LL	.
.	16dddd\	.
.	16cccc#X\	.
.	16ccccn\JJ)	.
!LO:MO:null:mod=*Xped	!LO:MO:mod=*null:null	!
*	*Xped	*
=34	=34	=34
!LO:MO:null:mod=*ped	!LO:MO:mod=*null:null	!
*	*ped	*
4AA- 4AAA-/	(8.dddd\L	5
.	16cccc\Jk	4
4f 4c 4A-\	16aaa-\LL	3
.	16fff\	2
*	*X8va	*
.	16ccc\	1
.	16aa-\JJ	4
4f 4c 4A-\	16ff\LL	.
.	16cc\	.
.	16a-\	.
.	16f\JJ)	.
!LO:MO:null:mod=*Xped	!LO:MO:mod=*null:null	!
*	*Xped	*
=35	=35	=35
!LO:MO:null:mod=*ped	!LO:MO:mod=*null:null	!
*	*ped	*
4BB- 4BBB-/	(32d\LLL	.
.	32f\	.
.	32a-\	.
.	32b-\	.
.	32dd\	.
.	32ff\	.
.	32aa-\	.
.	32bb-\JJJ	.
4d 4B- 4A- 4F\	8.ddd\L)	.
.	16ccc\Jk	.
4d 4B- 4A- 4F\	(8.ccc\L	.
.	16bb-\Jk)	.
!LO:MO:null:mod=*Xped	!LO:MO:mod=*null:null	!
*	*Xped	*
=36	=36	=36
!LO:MO:null:mod=*ped	!LO:MO:mod=*null:null	!
*	*ped	*
4E- 4EE-/	(8.cccM\L	.
.	16bb-\Jk)	.
4e- 4B- 4G\	(8.bb-M\L	.
.	16aa-\Jk)	.
4e- 4B- 4G\	(8.aa-M\L	.
.	16gg\Jk)	.
!LO:MO:null:mod=*Xped	!LO:MO:mod=*null:null	!
*	*Xped	*
!!LO:LB:g=original
=37	=37	=37
*xywh-10:156,2761,2640,822	*xywh-10:156,2761,2640,822	*
!LO:MO:null:mod=*ped	!LO:MO:mod=*null:null	!
*	*ped	*
4AA- 4AAA-/	[4ggm\	.
4f 4c 4A-\	(16gg\LL]	.
.	16ff\	.
.	16cc\	.
.	16a-\JJ	.
4c 4A-\	16f/LL	.
.	16c/	.
.	16A-/	.
.	16F/JJ)	.
!LO:MO:null:mod=*Xped	!LO:MO:mod=*null:null	!
*	*Xped	*
=38	=38	=38
!LO:MO:null:mod=*ped	!LO:MO:mod=*null:null	!
*	*ped	*ela
4BB- 4BBB-/	[4ffM\	3-4-3
*	*	*Xela
4e- 4B- 4G\	(16ff\LL]	5
.	16ee-\	.
.	16b-\	.
.	16g\JJ	.
4B- 4G\	16e-/LL	.
.	16B-/	.
.	16G/	.
.	16E-/JJ)	.
=39	=39	=39
!LO:MO:null:mod=*ped	!LO:MO:mod=*null:null	!
*	*ped	*ela
4BB- 4BBB-/	[4ddm\	3-4-3
*	*	*Xela
4d 4B- 4A- 4F\	(>16dd/LL]	5
.	16b-/	.
.	16a-/	.
.	16f/JJ	.
!	!LO:TUP:a	!
4B- 4A- 4F\	20d/LL	.
.	20B-/	.
.	20A-/	.
.	20F</	.
.	20D</JJ)	.
=40	=40	=40
!LO:MO:null:mod=*ped	!LO:MO:mod=*null:null	!
*	*ped	*
(<4EE-\	4E-</	.
4EEE-\)	4r	.
4r	4r	.
!!LO:PB:g=original
=41:|!|:	=41:|!|:	=41:|!|:
*>F	*>F	*>F
*xywh-11:33,52,2693,906	*xywh-11:33,52,2693,906	*
!LO:MO:null:mod=*ped	!LO:MO:mod=*null:null	!
*	*ped	*
4BB- 4BBB-/	(32d\LLL	.
.	32f\	.
.	32a-\	.
.	32b-\	.
.	32dd\	.
.	32ff\	.
.	32aa-\	.
.	32bb-\JJJ	.
4d 4B- 4A- 4F\	8.ddd\L)	.
.	16ccc\Jk	.
4d 4B- 4A- 4F\	(8.cccM\L	.
.	16bb-\Jk)	.
!LO:MO:null:mod=*Xped	!LO:MO:mod=*null:null	!
*	*Xped	*
=42	=42	=42
!LO:MO:null:mod=*ped	!LO:MO:mod=*null:null	!
*	*ped	*
!	!LO:TUP:a	!
4E- 4EE-/	(24b-\LL	.
.	24dd\	.
.	24ee-\	.
.	24gg\	.
.	24bb-\	.
.	24eee-\JJ	.
4e- 4B- 4G\	8.ggg\L	.
.	16fff\Jk)	.
4e- 4B- 4G\	(8.fffM\L	.
.	16eee-\Jk)	.
!LO:MO:null:mod=*Xped	!LO:MO:mod=*null:null	!
*	*Xped	*
!!LO:LB:g=original
=43	=43	=43
*xywh-11:38,898,2706,699	*xywh-11:38,898,2706,699	*
!LO:MO:null:mod=*ped	!LO:MO:mod=*null:null	!
*	*ped	*
4BB- 4BBB-/	(32dd\LLL	.
.	32ff\	.
.	32aa-\	.
.	32bb-\	.
*	*8va	*
.	32ddd\	.
.	32fff\	.
.	32aaa-\	.
.	32bbb-\JJJ	.
4d 4B- 4A- 4F\	8.dddd\L)	.
.	16cccc\Jk	.
4d 4B- 4A- 4F\	(8.ccccM\L	.
.	16bbb-\Jk)	.
!LO:MO:null:mod=*Xped	!LO:MO:mod=*null:null	!
*	*Xped	*
=44	=44	=44
!LO:MO:null:mod=*ped	!LO:MO:mod=*null:null	!
*	*ped	*
4E- 4EE-/	[4eeee-: [4ggg:\	.
4e- 4B- 4G\	16eeee-]LL 16ggg\]	.
.	(16cccc\	3
.	16bbb-\	2
.	16ggg\JJ	1
4e- 4B- 4G\	16eee-\LL	4
.	16bb-\	.
.	16gg\	.
.	16ee-\JJ)	.
!LO:MO:null:mod=*Xped	!LO:MO:mod=*null:null	!
*	*Xped	*
=45	=45	=45
!LO:MO:null:mod=*ped	!LO:MO:mod=*null:null	!
*	*ped	*
4E- 4EE-/	[4gggg: 4ggg:\	.
4g 4e- 4B-\	16gggg\LL]	.
.	(16ffff#X\	.
.	16ffffn\	.
.	16eeeen\JJ	.
4g 4e- 4B-\	16eeee-X\LL	.
.	16dddd\	.
.	16cccc#X\	.
.	16ccccn\JJ)	.
!LO:MO:null:mod=*Xped	!LO:MO:mod=*null:null	!
*	*Xped	*
!!LO:LB:g=original
=46	=46	=46
*xywh-11:51,1537,2675,660	*xywh-11:51,1537,2675,660	*
!LO:MO:null:mod=*ped	!LO:MO:mod=*null:null	!
*	*ped	*
4A- 4AA-\	(8.dddd\L	.
.	16cccc\Jk	.
4f 4c 4A-\	16aaa-\LL	.
.	16fff\	.
*	*X8va	*
.	16ccc\	.
.	16aa-\JJ	.
4f 4c 4A-\	16ff\LL	.
.	16cc\	.
.	16a-\	.
.	16f\JJ)	.
!LO:MO:null:mod=*Xped	!LO:MO:mod=*null:null	!
*	*Xped	*
=47	=47	=47
!LO:MO:null:mod=*ped	!LO:MO:mod=*null:null	!
*	*ped	*
4BB- 4BBB-/	(32d\LLL	.
.	32f\	.
.	32a-\	.
.	32b-\	.
.	32dd\	.
.	32ff\	.
.	32aa-\	.
.	32bb-\JJJ	.
4d 4B- 4A- 4F\	8.ddd\L	.
.	16ccc\Jk	.
4d 4B- 4A- 4F\	8.bb-M\L	.
.	16dd\Jk)	.
!LO:MO:null:mod=*Xped	!LO:MO:mod=*null:null	!
*	*Xped	*
=48	=48	=48
!LO:MO:null:mod=*ped	!LO:MO:mod=*null:null	!
*	*ped	*
(4B- 4G 4E-\	2ee-\	.
4EE-/)	.	.
!LO:MO:null:mod=*Xped	!LO:MO:mod=*null:null	!
*	*Xped	*
4r	4r	.
=49	=49	=49
!LO:MO:null:mod=*ped	!LO:MO:mod=*null:null	!
*	*ped	*
4BB- 4BBB-/	(32d\LLL	.
.	32f\	.
.	32a-\	.
.	32b-\	.
.	32dd\	.
.	32ff\	.
.	32aa-\	.
.	32bb-\JJJ	.
4d 4B- 4A- 4F\	8.ddd\L)	.
.	16ccc\Jk	.
4d 4B- 4A- 4F\	(8.cccM\L	.
.	16bb-\Jk)	.
!LO:MO:null:mod=*Xped	!LO:MO:mod=*null:null	!
*	*Xped	*
!!LO:LB:g=original
=50	=50	=50
*xywh-11:55,2124,2667,690	*xywh-11:55,2124,2667,690	*
!LO:MO:null:mod=*ped	!LO:MO:mod=*null:null	!
*	*ped	*
!	!LO:TUP:a	!
4E- 4EE-/	(24b-\LL	.
.	24dd\	.
.	24ee-\	.
.	24gg\	.
.	24bb-\	.
.	24eee-\JJ	.
4e- 4B- 4G\	8.ggg\L)	.
.	16fff\Jk	.
4e- 4B- 4G\	8.fffM\L	.
.	16eee-\Jk	.
!LO:MO:null:mod=*Xped	!LO:MO:mod=*null:null	!
*	*Xped	*
=51	=51	=51
!LO:MO:null:mod=*ped	!LO:MO:mod=*null:null	!
*	*ped	*
*	*8va	*
4BB- 4BBB-/	(32dd\LLL	.
.	32ff\	.
.	32aa-\	.
.	32bb-\	.
.	32ddd\	.
.	32fff\	.
.	32aaa-\	.
.	32bbb-\JJJ	.
4d 4B- 4A- 4F\	8.dddd\L)	.
.	16cccc\Jk	.
4d 4B- 4A- 4F\	(8.ccccM\L	.
.	16bbb-\Jk)	.
!LO:MO:null:mod=*Xped	!LO:MO:mod=*null:null	!
*	*Xped	*
=52	=52	=52
!LO:MO:null:mod=*ped	!LO:MO:mod=*null:null	!
*	*ped	*
4E- 4EE-/	([4eeee-: [4ggg:\	.
4e- 4B- 4G\	16eeee-]LL 16ggg\]	.
.	16cccc\	.
.	16bbb-\	.
.	16ggg\JJ	.
4e- 4B- 4G\	16eee-\LL	.
.	16bb-\	.
.	16gg\	.
.	16ee-\JJ)	.
!LO:MO:null:mod=*Xped	!LO:MO:mod=*null:null	!
*	*Xped	*
!!LO:LB:g=original
=53	=53	=53
*xywh-11:63,2676,2710,923	*xywh-11:63,2676,2710,923	*
!LO:MO:null:mod=*ped	!LO:MO:mod=*null:null	!
*	*ped	*
4E- 4EE-/	([4gggg 4ggg\	.
4g 4e- 4B-\	16gggg\LL]	.
.	16ffff#X\	.
.	16ffffn\	.
.	16eeeen\JJ	.
4g 4e- 4B-\	16eeee-X\LL	.
.	16dddd\	.
.	16cccc#X\	.
.	16ccccn\JJ)	.
!LO:MO:null:mod=*Xped	!LO:MO:mod=*null:null	!
*	*Xped	*
=54	=54	=54
!LO:MO:null:mod=*ped	!LO:MO:mod=*null:null	!
*	*ped	*
4A- 4AA-\	(8.dddd\L	.
.	16cccc\Jk	.
4f 4c 4A-\	16aaa-\LL	.
.	16fff\	.
.	16ccc\	.
.	16aa-\JJ	.
*	*X8va	*
4f 4c 4A-\	16ff\LL	.
.	16cc\	.
.	16a-\	.
!LO:MO:null:mod=*Xped	!LO:MO:mod=*null:null	!
*	*Xped	*
.	16f\JJ)	.
=55	=55	=55
!LO:MO:null:mod=*ped	!LO:MO:mod=*null:null	!
*	*ped	*
4BB- 4BBB-/	(32d\LLL	.
.	32f\	.
.	32a-\	.
.	32b-\	.
.	32dd\	.
.	32ff\	.
.	32aa-\	.
.	32bb-\JJJ	.
4d 4B- 4A- 4F\	8.ddd\L)	.
.	16ccc\Jk	.
4d 4B- 4A- 4F\	8.bb-M\L	.
.	16dd\Jk	.
!LO:MO:null:mod=*Xped	!LO:MO:mod=*null:null	!
*	*Xped	*
=56	=56	=56
!LO:MO:null:mod=*ped	!LO:MO:mod=*null:null	!
*	*ped	*
(4B- 4G 4E-\	2ee-\	.
4EE-/)	.	.
!LO:MO:null:mod=*Xped	!LO:MO:mod=*null:null	!
*	*Xped	*
4r;	4r;	.
=:|!	=:|!	=:|!
*-	*-	*-
!!!system-decoration: {(*)}
!!!RDF**kern: > = above
!!!RDF**kern: < = below
!!!filter-modern: | autostem -r | shed -e "s/TUP/tup/L; s/^(X)?tuplet/$1TUPLET/I" | shed -k -e “s/([^a-gA-Gn#X-])[<>]/$1/g”  | modori -m
!!!ENC: Andrzej Kubiczek
!!!END: 2022-02-07
!!!ENC: Andrzej Kubiczek
!!!END: 2022-02-11
!!!ENC-modern: Leszek Kubiak
!!!END-modern: 2022-07-28
!!!ENC-iiif: Natalia Wrzos
!!!END-iiif: 2022-08-30
!!!YEC: Copyright 2022 Narodowy Instytut Fryderyka Chopina (https://polishscores.org)
!!!YEM: License CC-BY-4.0 (https://creativecommons.org/licenses/by/4.0)
